dist/assets/img/questions/7/answers/2_1200.svg

<svg width="522" height="250" viewBox="0 0 522 250" fill="none" xmlns="http://www.w3.org/2000/svg">
<g filter="url(#filter0_di_1419_50798)">
<path fill-rule="evenodd" clip-rule="evenodd" d="M92.9178 28C88.8416 28 85.4173 31.0647 84.9668 35.1159L72.2527 149.451C71.9034 152.592 69.7243 155.2 66.8111 156.424C57.0611 160.52 43.5447 168.903 40.0032 181.115C39.9832 181.184 40.0598 181.241 40.1197 181.201C44.0937 178.571 51.6466 173.571 60.7585 170.981C65.5101 169.63 69.5395 173.85 68.9936 178.759L67.6195 191.116C67.0925 195.855 70.8021 200 75.5705 200H456.345C460.422 200 463.846 196.935 464.296 192.884L481.644 36.8842C482.171 32.145 478.461 28 473.693 28H92.9178Z" fill="#FFF0CB"/>
</g>
<defs>
<filter id="filter0_di_1419_50798" x="0" y="0" width="521.693" height="252" filterUnits="userSpaceOnUse" color-interpolation-filters="sRGB">
<feFlood flood-opacity="0" result="BackgroundImageFix"/>
<feColorMatrix in="SourceAlpha" type="matrix" values="0 0 0 0 0 0 0 0 0 0 0 0 0 0 0 0 0 0 127 0" result="hardAlpha"/>
<feOffset dy="12"/>
<feGaussianBlur stdDeviation="20"/>
<feComposite in2="hardAlpha" operator="out"/>
<feColorMatrix type="matrix" values="0 0 0 0 1 0 0 0 0 1 0 0 0 0 1 0 0 0 1 0"/>
<feBlend mode="normal" in2="BackgroundImageFix" result="effect1_dropShadow_1419_50798"/>
<feBlend mode="normal" in="SourceGraphic" in2="effect1_dropShadow_1419_50798" result="shape"/>
<feColorMatrix in="SourceAlpha" type="matrix" values="0 0 0 0 0 0 0 0 0 0 0 0 0 0 0 0 0 0 127 0" result="hardAlpha"/>
<feOffset dy="-4"/>
<feGaussianBlur stdDeviation="4"/>
<feComposite in2="hardAlpha" operator="arithmetic" k2="-1" k3="1"/>
<feColorMatrix type="matrix" values="0 0 0 0 0.883659 0 0 0 0 0.635314 0 0 0 0 0.0558422 0 0 0 0.4 0"/>
<feBlend mode="normal" in2="shape" result="effect2_innerShadow_1419_50798"/>
</filter>
</defs>
</svg>

<svg width="522" height="250" viewBox="0 0 522 250" fill="none" xmlns="http://www.w3.org/2000/svg"><g filter="url(#filter0_di_1419_50798)"><path fill-rule="evenodd" clip-rule="evenodd" d="M92.918 28a8 8 0 00-7.951 7.116L72.253 149.45c-.35 3.141-2.529 5.749-5.442 6.973-9.75 4.096-23.266 12.479-26.808 24.691a.077.077 0 00.117.086c3.974-2.63 11.527-7.63 20.639-10.22 4.751-1.351 8.78 2.869 8.235 7.778l-1.374 12.357c-.528 4.739 3.182 8.884 7.95 8.884h380.775a8 8 0 007.951-7.116l17.348-156c.527-4.739-3.183-8.884-7.951-8.884H92.918z" fill="#FFF0CB"/></g><defs><filter id="filter0_di_1419_50798" x="0" y="0" width="521.693" height="252" filterUnits="userSpaceOnUse" color-interpolation-filters="sRGB"><feFlood flood-opacity="0" result="BackgroundImageFix"/><feColorMatrix in="SourceAlpha" values="0 0 0 0 0 0 0 0 0 0 0 0 0 0 0 0 0 0 127 0" result="hardAlpha"/><feOffset dy="12"/><feGaussianBlur stdDeviation="20"/><feComposite in2="hardAlpha" operator="out"/><feColorMatrix values="0 0 0 0 1 0 0 0 0 1 0 0 0 0 1 0 0 0 1 0"/><feBlend in2="BackgroundImageFix" result="effect1_dropShadow_1419_50798"/><feBlend in="SourceGraphic" in2="effect1_dropShadow_1419_50798" result="shape"/><feColorMatrix in="SourceAlpha" values="0 0 0 0 0 0 0 0 0 0 0 0 0 0 0 0 0 0 127 0" result="hardAlpha"/><feOffset dy="-4"/><feGaussianBlur stdDeviation="4"/><feComposite in2="hardAlpha" operator="arithmetic" k2="-1" k3="1"/><feColorMatrix values="0 0 0 0 0.883659 0 0 0 0 0.635314 0 0 0 0 0.0558422 0 0 0 0.4 0"/><feBlend in2="shape" result="effect2_innerShadow_1419_50798"/></filter></defs></svg>
